X: 60
T:Dinky's
M:C|
L:1/8
S:Altan
R:reel
K:AMix
ed|(3cdc (3BcB ABcd|egfd edBa |gB (3BBB gBaB|gB(3BBB gfed|
(3cdc (3BcB ABcd|egfd edBa|gfgd efed|1(3cdc (3BcB A2 :|2(3cdc (3BcB Aefg
|
|aA (3AAA aAbA |aA (3AAA agef|gB (3BBB gBaB|gB (3BBB gfeg|
aA (3AAA aAbA |aA (3AAA agef|gfgd efed|(3cdc BcB Aefg||
aA (3AAA aAbA |aA (3AAA agef|gB (3BBB gBaB|gB (3BBB gfeg|
aA (3AAA gA (3AAA|fA (3AAA e^def|gfgd efed|cdcB A2  ||
